X: 612
T: For Treble Recorder
O:Scotland
M:4/4
K:D
P:A
|: D2 (FA) G2 (BG)|A2 (ce) dfaf|gb (3bab afdf|gefd edBG|
D2 (FA) G2 (BG)|A2 (ce) dfaf|gb (3bab afdf| [1 geag fdd2:| [2 geag fd d |
P:B
e|\
f2af bfaf|dfaf edBG|A2ce dfaf|gb (3bab d'bag|
f2af bfaf|dfaf edBG|A2ce dfaf| [1 geag fdd2:| [2 geag fd d|
